X:1
T:Title
%%score ( 1 2 ) { ( 3 5 ) | 4 }
L:1/8
Q:1/4=140
M:6/4
K:Ab
V:1 treble nm="Grand Piano, Soprano"
V:2 treble 
V:3 bass nm="Choir Pad, The Foundation of God"
V:5 bass 
V:4 bass 
V:1
 [CE]2 [CE]2 [CA]2 [DB]2 [Ec]2 [_GB]2 | [_Gc]2 [Fd]2 [DF]2 [FA]2 [Ec]4 | %2
w: By~John~D.~Creswell * * * * *||
 [Ec][Ec] [Ec]2 [DB]2 [C=A]2 [DB]2 [DF]2 | [DG]2 F4- F2 E4 | [CE]2 [CE]2 [CA]2 [DB]2 [Ec]2 [_GB]2 | %5
w: |||
 [_Gc]2 [Fd]2 [DF]2 [FA]2 [Ec]4 | [Ec][Ec] [=Dc]2 [DB]2 [DA]2 [DG]2 [DA]2 | %7
w: ||
 [=DF]2 E4- E4- E3/2 z/ | EE [Ed]2 G2 A2 [Bd]2 G2 | E2 [Ac]2 [ce]2 [df]2 [ce]4 | %10
w: |||
 [Ec][Ec] [=Dc]2 B2 A2 [DF]2 G2 | [=DA]2 B2- [GB-]2 [FB-]2 [EB]3- [E-B]/E/ | %12
w: ||
 [DE]2 [CE]2 [CA]2 [DB]2 [Ec]2 [_GB]2 | [Ec]2 [Fd]2 [DF]2 [FA]2 [Ec]4 | %14
w: ||
 [_Ge]2 [Fe]2 [Fd]2 [FB]2 [EA]2 [=Gc]2 | [EB]2 [EA]4- [EA]6- | [EA]6 z6 |] %17
w: |||
V:2
 x12 | x12 | x12 | z2 C4- C4- C3/2 z/ | x12 | x12 | x12 | x12 | x12 | x12 | x12 | z2 ._D4 z6 | %12
 x12 | x12 | x12 | x12 | x12 |] %17
V:3
 A,2 A,2 A,2 A,2 A,2 A,2 | A,2 A,2 A,2 A,2 A,4 | A,A, A,2 G,2 _G,2 =G,2 A,2 | %3
 z2 A,4- A,4- A,3/2 z/ | A,2 A,2 A,2 A,2 A,2 A,2 | A,2 A,2 A,2 A,2 A,4 | A,A, A,2 F,2 F,2 B,2 B,2 | %7
 B,2 G,4- G,4- G,3/2 z/ | z2 .B,4 z2[K:treble] .E4 | z2 E2 E2 F2 E4 | A,A, .A,4 z2 .B,4 | %11
 z2 G,2 B,2 A,2 G,4 | G,2 A,2 A,2 A,2 A,2 A,2 | A,2 A,2 A,2 A,2 A,4 | C2 C2 B,2 A,2 C2 E2 | %15
 D2 C4- C6- | C6 z6 |] %17
V:4
 A,,2 A,,2 A,,2 A,,2 A,,2 A,,2 | A,,2 D,2 D,2 D,2 A,,4 | A,,A,, E,2 E,2 E,2 E,2 E,2 | %3
 E,2 A,,4- A,,4- A,,3/2 z/ | A,,2 A,,2 A,,2 A,,2 A,,2 A,,2 | A,,2 D,2 D,2 D,2 A,,4 | %6
 A,,A,, B,,2 B,,2 B,,2 B,,2 B,,2 | B,,2 E,4- E,4- E,3/2 z/ | z2 .E,4 z2 .E,4 | z2 A,2 A,2 A,2 A,4 | %10
 A,,A,, .B,,4 z2 .B,,4 | z2 E,2 E,2 E,2 E,4 | E,2 A,,2 A,,2 A,,2 A,,2 A,,2 | %13
 A,,2 D,2 D,2 D,2 A,,4 | A,,2 B,,2 B,,2 D,2 E,2 E,2 | E,2 A,,4- A,,6- | A,,6 z6 |] %17
V:5
 x12 | x12 | x12 | .B,4 C,2 .E,6 | x12 | x12 | x12 | x12 | x8[K:treble] x4 | x12 | x12 | x12 | %12
 x12 | x12 | x12 | x12 | x12 |] %17

